src/assets/tulip/wallet_card.svg

<svg width="50" height="50" viewBox="0 0 50 50" fill="none" xmlns="http://www.w3.org/2000/svg">
<circle cx="25" cy="25" r="25" fill="url(#paint0_linear)"/>
<path fill-rule="evenodd" clip-rule="evenodd" d="M28.3924 14.1341C28.8706 13.858 29.4822 14.0219 29.7584 14.5002L31.7791 18.0002H34C35.1046 18.0002 36 18.8956 36 20.0002V34.0002C36 35.1048 35.1046 36.0002 34 36.0002H16C14.8954 36.0002 14 35.1048 14 34.0002V20.0002C14 18.8956 14.8954 18.0002 16 18.0002H21.6962L28.3924 14.1341ZM29.4654 17.9927L28.5263 16.3662L25.7161 17.9887L29.4654 17.9927ZM34 30.5002H30.625C28.6695 30.5002 27 28.9786 27 27.0002C27 25.0218 28.6695 23.5002 30.625 23.5002H34V20.0002H16V34.0002H34V30.5002ZM34 25.5002H30.625C29.681 25.5002 29 26.2172 29 27.0002C29 27.7832 29.681 28.5002 30.625 28.5002H34V25.5002Z" fill="#2C3437" fill-opacity="0.8"/>
<defs>
<linearGradient id="paint0_linear" x1="50" y1="-1.09139e-05" x2="-1.24642" y2="1.3119" gradientUnits="userSpaceOnUse">
<stop stop-color="#AAF5D4"/>
<stop offset="1" stop-color="#7CE0D6"/>
</linearGradient>
</defs>
</svg>

<svg width="50" height="50" fill="none" xmlns="http://www.w3.org/2000/svg"><circle cx="25" cy="25" r="25" fill="url(#paint0_linear)"/><path fill-rule="evenodd" clip-rule="evenodd" d="M28.392 14.134a1 1 0 011.366.366L31.78 18H34a2 2 0 012 2v14a2 2 0 01-2 2H16a2 2 0 01-2-2V20a2 2 0 012-2h5.696l6.696-3.866zm1.073 3.859l-.939-1.627-2.81 1.623 3.75.004zM34 30.5h-3.375C28.669 30.5 27 28.98 27 27c0-1.978 1.67-3.5 3.625-3.5H34V20H16v14h18v-3.5zm0-5h-3.375c-.944 0-1.625.717-1.625 1.5s.681 1.5 1.625 1.5H34v-3z" fill="#2C3437" fill-opacity=".8"/><defs><linearGradient id="paint0_linear" x1="50" y1="0" x2="-1.246" y2="1.312" gradientUnits="userSpaceOnUse"><stop stop-color="#AAF5D4"/><stop offset="1" stop-color="#7CE0D6"/></linearGradient></defs></svg>
